X: 37179
T: Sir John Fenwick's The Flower Amang Them A'
R: waltz
M: 3/4
K: Gmajor
G3 A Bc|d3 e g2|d3 e g2|ed cB AG|
A3 B cd|e3 f g2|e3 f g2|e4 d2|
G3 A Bc|d3 e g2|d3 e g2|ed cB AG|
cB/c/ dc BA|BA/B/ cB AG|A3 B cd|e4 d2||
g2 G2 B2|g2 G2 B2|g2 G2 g2|ed cB AG|
a2 A2 c2|a2 A2 c2|a2 A2 a2|e4 f2|
g2 G2 B2|g2 G2 B2|g2 G2 g2|ed cB AG|
cB/c/ dc BA|BA/B/ cB AG|A3 B cd|e4 d2||

